X:1
T:The Tongs By The Fire"   (jig)   0962
C:after Chief  F. O'Neill
L:1/8
M:4/4
I:linebreak $
K:C
V:1 treble 
V:1
 BEA |SOSOOO .!fermata!PMTuCMD | GBd cA^F z2 | G(ge) dBG z2 | (c<e) c BdB z2 | ABG ^FED z2 | %6
 GBd cA^F z2 |$ G(ge) dBd z2 | cec Bag z2 |{g} ^fef g2 :: d | gdB gdB z2 | g^fa gdB z2 | %13
{a} g^fg eag z2 |$ ^fdd def z2 | gbg ^faf z2 | ege de^f z2 | gdB AGA z2 | BGG G2 :| %19
